X:13
T:Fubu's Mazurka 2
C:Thierry Mirebeau
S:Blowzabella
O:Fubu's Mazurka
M:3/4
L:1/8
Q:1/4=180
K:G
D |:GA |    B2 BA GF|E4 AB|cA FA cA| B2 G
D GA | B2 BA GF|E4 AB|c2 cA FA | G4:|!
K:Gm
D2|G2 GA Bd|c3 d cA|BG DG BG|A^F DF AF|!
G2 GA Bd|c3 d cA|BG DG A^F|G4:|!
